X:123
T:Kingsbury Reel 
T: (Streamlined Version)
M:4/4
L:1/8
N:Streamlined Lauri Andres version by J.R.
Z:Jo Anne Rocke 10/2/2003
K:D
|: d2ze d2f2 | a2b2 a2ef | d2ze d2ef | gfed czzc |
d2ze d2fg | a2b2 a2ef | gz2a bgez | d2f2d2 :|
|: e2 | f3g fedc | B2zz BAGF | E2ez edcB | A2AG FzDE |
F2zG FEDz | GzBz g4 | fzzf bgez | d2f2d2 :|
